X:387
T: Der falsche Freier (113), S. 267f
N: T0276
O: Luxemburg
S: Singendes Volk, Esch-Alzette 1937 posth.]
N: Straen, fff Witry, 13.12.1932
R: Liebeslieder]
M: 4/4
L: 1/8
K: G
DG | G3BBBAG | FAA2z2
DA | A3Bc2A2 | GBB2z2
GA | B3BB2BB | ABc2z2
ce | d3GBAcF | A2G2z2

@@@ Tune index: 8441
